X:1
T:the Mountain Road
M:C|
L:1/8
K:D
DE !segno!|:\
"D"F2AF BFAF | F2AF "A7"EFDE |\
[1 "D"F2AF    BFAF | "G"G2FG "A7"EFDE :|\
[2 "D"FA~A2 "G"BAFB | "A7"ABde "D"fdd2 ||
|:\
"D"dcdB ADFA | dcde "A7"fgfe | "D"dcdB ADFA |\
"G"G2 FG "A7"EFDE !segno!:| HD4 |]
